!!!PDT:	1923
!!!LANG: Non-Tone
!!!LING_GROUP: Siouan
!!!REG: Dakotas
!!!COM: Anon.
!!!OTL: Horse Society Song (b)
!!!ODT: <1918//
!!!MPN: Marolipa [Buffalo Bull Head, Ben Benson]
!!!MLC: Fort Berthold Reservation, North Dakota, United States of America
!! Song was recorded during either the summer of 1912, 1915, or 1918.
!!!AGN: monody
!!!SOCIAL_FUNCTION: Mandan and Hidatsa Horse Society
!!!AMT: irregular
!!!RWG: Transcribed pitches, durations, and meters are only approximate.
!! Drum Tempo: MM80
!! Drum-rhythm (approximate): (12^ 12r 12) (12^ 12r 12) (12^ 12r 12) (12^ 12 12)
**kern
*ICvox
*Imale
*clefG2
*k[b-e-a-]
*M2/4
*MM80
=1-
(12g
12g
12g)
4g
=2
16cc
16cc
16cc
16b-
4g
=3
(12g
12g
12f)
4e-
=4
16f
16f
16f
16e-
4e-
*M3/4
=5
8.e-
16c
8.c
16B-
4G
=6
16c
16c
16c
16B-
16c
8.B-
8.G
16G
=7
4.G
8G^
=8
4G
4G
=9
(12g
12g
12g)
4g
=10
16cc
16cc
16cc
16b-
4g
=11
(12g
12g
12f)
4e-
=12
16f
16f
16f
16e-
4e-
*M3/4
=13
8.e-
16c
8.c
16B-
4G
=14
16c
16c
16c
16B-
16c
8.B-
8.G
16G
=15
4.G
8G^
=16
4G
4G
==
*-
!!!CNT: Mandan
!!!TXO: Mandan
!!!OCY: United States
!!!OCL: Frances Densmore
!!!YOR: Frances Densmore, "Mandan and Hidatsa Music",
!!!YOR: Bulletin 80, page 144, No. 76
!!!PPR: Smithsonian Institution, Bureau of American Ethnology
!!!PPR: Government Printing Office
!!!PDT: 1923
!!!PPP: Washington, DC, United States of America
!!!YEC: Electronic Copyright 2000 David Huron
!!!YER: August 2000
!!!YEN: United States of America
!!!ENC: David Huron
!!!RDT: August 18, 2000
!!!EEV: Release 1.0
!!!AIN: tom, vox
